packages/homepage/src/pages/company/images/netlify.svg

<svg fill="none" height="97" viewBox="0 0 97 97" width="97" xmlns="http://www.w3.org/2000/svg" xmlns:xlink="http://www.w3.org/1999/xlink"><radialGradient id="a" cx="0" cy="0" gradientTransform="matrix(0 96.1702 -111.154 0 -2.86912 47.1352)" gradientUnits="userSpaceOnUse" r="1"><stop offset="0" stop-color="#20c6b7"/><stop offset="1" stop-color="#4d9abf"/></radialGradient><path d="m70.1377 33.7658-.0351-.0151c-.0201-.0075-.0403-.0151-.0579-.0326-.0288-.031-.0501-.0681-.0623-.1086-.0123-.0405-.015-.0832-.008-.1249l1.943-11.8666 9.1121 9.1046-9.4766 4.0275c-.0263.0106-.0545.0157-.0829.015h-.0377c-.0126-.0075-.0251-.0176-.0503-.0427-.3527-.3922-.7744-.7165-1.2443-.9566zm13.2169-.7232 9.743 9.7323c2.0235 2.0238 3.0365 3.0332 3.406 4.2033.0553.1732.1006.3465.1358.5248l-23.2842-9.8503c-.0125-.0052-.025-.0102-.0377-.0151-.093-.0377-.2011-.0803-.2011-.1758 0-.0954.1106-.1406.2037-.1782l.0301-.0126zm12.8876 17.5839c-.5027.9441-1.4831 1.9234-3.1421 3.5831l-10.9847 10.9702-14.2073-2.9554-.0754-.015c-.1257-.0201-.2589-.0427-.2589-.1557-.054-.5855-.228-1.1535-.5112-1.6689-.2833-.5153-.6697-.9669-1.1353-1.3266-.0578-.0578-.0427-.1482-.0251-.231 0-.0126 0-.0252.005-.0352l2.6721-16.3862.01-.0552c.0151-.1256.0377-.2712.1509-.2712.5726-.0712 1.1253-.2554 1.6259-.5421s.9391-.67 1.2899-1.1277c.0226-.0251.0377-.0527.0679-.0677.0804-.0377.1759 0 .2589.0351l24.2569 10.2495zm-16.6531 17.0767-18.0632 18.0434 3.0918-18.9825.0051-.0251c.0025-.0251.0075-.0502.015-.0728.0252-.0603.0905-.0854.1534-.1105l.0301-.0125c.677-.2885 1.2758-.7334 1.747-1.2982.0604-.0703.1333-.1381.2263-.1506.0241-.004.0487-.004.0729 0l12.7191 2.6113zm-21.8865 21.8625-2.0361 2.0338-22.5099-32.4961c-.0081-.0119-.0165-.0236-.0251-.0352-.0352-.0477-.0729-.0954-.0654-.1506.0025-.0402.0277-.0754.0553-.1055l.0252-.0327c.0678-.1004.1257-.2008.1885-.3088l.0503-.0879.0075-.0075c.0352-.0603.0679-.118.1282-.1507.0528-.0251.1257-.015.1835-.0025l24.9381 5.1373c.0698.0109.1355.0394.1911.0829.0326.0326.0402.0678.0477.108.174.6574.4977 1.2658.946 1.7776.4482.5118 1.0089.9131 1.6381 1.1727.0704.0351.0402.113.0075.1958-.0163.0364-.0289.0742-.0377.113-.3142 1.9083-3.0088 18.3246-3.7328 22.7564zm-4.2531 4.2459c-1.5007 1.484-2.3855 2.2699-3.3859 2.5863-.9864.3115-2.0451.3115-3.0315 0-1.1714-.3716-2.1844-1.381-4.2079-3.4048l-22.6054-22.5806 5.9046-9.1473c.0276-.0451.0553-.0853.1005-.118.0629-.0452.1534-.0251.2288 0 1.3552.4085 2.8104.3348 4.1174-.2084.0678-.0251.1357-.0427.1885.0051.0264.024.05.051.0704.0803l22.6205 32.7899zm-35.4101-25.5761-5.1857-5.18 10.2407-4.3639c.0262-.0114.0544-.0174.083-.0176.0854 0 .1357.0854.1809.1632.103.1582.212.3123.3268.462l.0327.0402c.0302.0427.01.0854-.0201.1255l-5.6558 8.7706zm-7.4807-7.4724-6.56065-6.5535c-1.11607-1.1148-1.92547-1.9234-2.48854-2.6189l19.94849 4.133c.0251.0046.0502.0088.0754.0125.1232.0201.2589.0427.2589.1582 0 .1256-.1483.1833-.274.231l-.0578.0251zm-10.195419-12.542c.022734-.4222.098746-.8398.226231-1.2429.372023-1.1701 1.382518-2.1795 3.408538-4.2033l8.39565-8.3864c3.8656 5.604 7.7417 11.2009 11.6282 16.7904.0679.0904.1433.1909.0654.2662-.367.4042-.734.8462-.9929 1.3257-.0281.0617-.0713.1152-.1257.1557-.0327.0201-.0679.0126-.1056.005h-.005l-22.494819-4.7129zm14.277619-16.0774 11.2889-11.2765c1.0608.4646 4.9218 2.0941 8.3756 3.5505 2.6142 1.1048 4.9972 2.1091 5.7462 2.4356.0754.0301.1433.0602.176.1355.0201.0452.01.103 0 .1507-.1787.814-.1521 1.6595.0773 2.4607.2295.8012.6547 1.5328 1.2373 2.1292.0754.0754 0 .1833-.0653.2762l-.0352.0528-11.4624 17.7345c-.0301.0502-.0578.0929-.108.1256-.0604.0376-.1458.02-.2162.0025-.4458-.1167-.9041-.1791-1.3649-.1858-.4123 0-.8597.0753-1.3122.1581h-.0025c-.0503.0076-.0955.0176-.1357-.0125-.0444-.0363-.0827-.0795-.1131-.1281zm13.5688-13.5538 14.6145-14.59847c2.0235-2.02128 3.0365-3.033173 4.2079-3.402277.9864-.311579 2.0451-.311579 3.0315 0 1.1713.369104 2.1844 1.380997 4.2079 3.402277l3.1672 3.16375-10.394 16.07982c-.0258.0468-.0608.0879-.1031.1206-.0628.0426-.1508.0251-.2262 0-.8195-.2485-1.6873-.2937-2.5282-.1318s-1.6297.526-2.2981 1.0608c-.0678.0703-.1684.0301-.2539-.0075-1.3573-.5901-11.9148-5.047-13.4255-5.6872zm31.436-9.23014 9.5972 9.58664-2.3126 14.3072v.0376c-.0021.0326-.0088.0648-.0201.0954-.0251.0503-.0754.0603-.1257.0754-.4944.1496-.9601.3813-1.3775.6854-.0179.0128-.0347.0271-.0503.0427-.0276.0302-.0553.0578-.1005.0628-.0368.0011-.0735-.0048-.1081-.0176l-14.6245-6.2069-.0277-.0126c-.093-.0377-.2036-.0829-.2036-.1783-.0859-.814-.3521-1.5988-.7792-2.2975-.0704-.1155-.1483-.236-.088-.354zm-9.8838 21.60884 13.7096 5.8002c.0754.0352.1584.0678.191.1457.0131.0468.0131.0963 0 .1431-.0402.2009-.0754.4293-.0754.6603v.3842c0 .0954-.098.1356-.1885.1733l-.0277.01c-2.1718.9265-30.4908 12.9889-30.5335 12.9889s-.088 0-.1307-.0426c-.0754-.0754 0-.1808.0678-.2762.012-.0166.0238-.0333.0352-.0503l11.2663-17.4257.0201-.0301c.0654-.1055.1408-.2235.2614-.2235l.1132.0176c.2564.0352.4826.0678.7113.0678 1.7093 0 3.2929-.8311 4.2481-2.2523.0228-.0379.0517-.0719.0855-.1004.0679-.0502.1684-.0251.2463.01zm-15.7004 23.0627 30.8679-13.1496s.0453 0 .088.0427c.1684.1682.3117.2812.4499.3867l.0679.0426c.0629.0352.1257.0754.1307.1407 0 .0251 0 .0401-.005.0627l-2.6444 16.2255-.01.0653c-.0176.1255-.0352.2687-.1534.2687-.705.0475-1.3878.266-1.9891.6366-.6014.3706-1.1033.8821-1.4621 1.4901l-.0126.0201c-.0352.0577-.0679.113-.1257.1431-.0528.0251-.1206.0151-.1759.0025l-24.6164-5.072c-.0252-.005-.3821-1.3032-.4098-1.3057z" fill="url(#a)"/></svg>

<svg width="97" height="97" viewBox="0 0 97 97" fill="none" xmlns="http://www.w3.org/2000/svg">
<path d="M70.1377 33.7658L70.1026 33.7507C70.0825 33.7432 70.0623 33.7356 70.0447 33.7181C70.0159 33.6871 69.9946 33.65 69.9824 33.6095C69.9701 33.569 69.9674 33.5263 69.9744 33.4846L71.9174 21.618L81.0295 30.7226L71.5529 34.7501C71.5266 34.7607 71.4984 34.7658 71.47 34.7651H71.4323C71.4197 34.7576 71.4072 34.7475 71.382 34.7224C71.0293 34.3302 70.6076 34.0059 70.1377 33.7658ZM83.3546 33.0426L93.0976 42.7749C95.1211 44.7987 96.1341 45.8081 96.5036 46.9782C96.5589 47.1514 96.6042 47.3247 96.6394 47.503L73.3552 37.6527C73.3427 37.6475 73.3302 37.6425 73.3175 37.6376C73.2245 37.5999 73.1164 37.5573 73.1164 37.4618C73.1164 37.3664 73.227 37.3212 73.3201 37.2836L73.3502 37.271L83.3546 33.0426ZM96.2422 50.6265C95.7395 51.5706 94.7591 52.5499 93.1001 54.2096L82.1154 65.1798L67.9081 62.2244L67.8327 62.2094C67.707 62.1893 67.5738 62.1667 67.5738 62.0537C67.5198 61.4682 67.3458 60.9002 67.0626 60.3848C66.7793 59.8695 66.3929 59.4179 65.9273 59.0582C65.8695 59.0004 65.8846 58.91 65.9022 58.8272C65.9022 58.8146 65.9022 58.802 65.9072 58.792L68.5793 42.4058L68.5893 42.3506C68.6044 42.225 68.627 42.0794 68.7402 42.0794C69.3128 42.0082 69.8655 41.824 70.3661 41.5373C70.8667 41.2506 71.3052 40.8673 71.656 40.4096C71.6786 40.3845 71.6937 40.3569 71.7239 40.3419C71.8043 40.3042 71.8998 40.3419 71.9828 40.377L96.2397 50.6265H96.2422ZM79.5891 67.7032L61.5259 85.7466L64.6177 66.7641L64.6228 66.739C64.6253 66.7139 64.6303 66.6888 64.6378 66.6662C64.663 66.6059 64.7283 66.5808 64.7912 66.5557L64.8213 66.5432C65.4983 66.2547 66.0971 65.8098 66.5683 65.245C66.6287 65.1747 66.7016 65.1069 66.7946 65.0944C66.8187 65.0904 66.8433 65.0904 66.8675 65.0944L79.5866 67.7057L79.5891 67.7032ZM57.7026 89.5657L55.6665 91.5995L33.1566 59.1034C33.1485 59.0915 33.1401 59.0798 33.1315 59.0682C33.0963 59.0205 33.0586 58.9728 33.0661 58.9176C33.0686 58.8774 33.0938 58.8422 33.1214 58.8121L33.1466 58.7794C33.2144 58.679 33.2723 58.5786 33.3351 58.4706L33.3854 58.3827L33.3929 58.3752C33.4281 58.3149 33.4608 58.2572 33.5211 58.2245C33.5739 58.1994 33.6468 58.2095 33.7046 58.222L58.6427 63.3593C58.7125 63.3702 58.7782 63.3987 58.8338 63.4422C58.8664 63.4748 58.874 63.51 58.8815 63.5502C59.0555 64.2076 59.3792 64.816 59.8275 65.3278C60.2757 65.8396 60.8364 66.2409 61.4656 66.5005C61.536 66.5356 61.5058 66.6135 61.4731 66.6963C61.4568 66.7327 61.4442 66.7705 61.4354 66.8093C61.1212 68.7176 58.4266 85.1339 57.7026 89.5657ZM53.4495 93.8116C51.9488 95.2956 51.064 96.0815 50.0636 96.3979C49.0772 96.7094 48.0185 96.7094 47.0321 96.3979C45.8607 96.0263 44.8477 95.0169 42.8242 92.9931L20.2188 70.4125L26.1234 61.2652C26.151 61.2201 26.1787 61.1799 26.2239 61.1472C26.2868 61.102 26.3773 61.1221 26.4527 61.1472C27.8079 61.5557 29.2631 61.482 30.5701 60.9388C30.6379 60.9137 30.7058 60.8961 30.7586 60.9439C30.785 60.9679 30.8086 60.9949 30.829 61.0242L53.4495 93.8141V93.8116ZM18.0394 68.2355L12.8537 63.0555L23.0944 58.6916C23.1206 58.6802 23.1488 58.6742 23.1774 58.674C23.2628 58.674 23.3131 58.7594 23.3583 58.8372C23.4613 58.9954 23.5703 59.1495 23.6851 59.2992L23.7178 59.3394C23.748 59.3821 23.7278 59.4248 23.6977 59.4649L18.0419 68.2355H18.0394ZM10.5587 60.7631L3.99805 54.2096C2.88198 53.0948 2.07258 52.2862 1.50951 51.5907L21.458 55.7237C21.4831 55.7283 21.5082 55.7325 21.5334 55.7362C21.6566 55.7563 21.7923 55.7789 21.7923 55.8944C21.7923 56.02 21.644 56.0777 21.5183 56.1254L21.4605 56.1505L10.5587 60.7631ZM0.363281 48.2211C0.386015 47.7989 0.462027 47.3813 0.589512 46.9782C0.961535 45.8081 1.97203 44.7987 3.99805 42.7749L12.3937 34.3885C16.2593 39.9925 20.1354 45.5894 24.0219 51.1789C24.0898 51.2693 24.1652 51.3698 24.0873 51.4451C23.7203 51.8493 23.3533 52.2913 23.0944 52.7708C23.0663 52.8325 23.0231 52.886 22.9687 52.9265C22.936 52.9466 22.9008 52.9391 22.8631 52.9315H22.8581L0.363281 48.2186V48.2211ZM14.6409 32.1437L25.9298 20.8672C26.9906 21.3318 30.8516 22.9613 34.3054 24.4177C36.9196 25.5225 39.3026 26.5268 40.0516 26.8533C40.127 26.8834 40.1949 26.9135 40.2276 26.9888C40.2477 27.034 40.2376 27.0918 40.2276 27.1395C40.0489 27.9535 40.0755 28.799 40.3049 29.6002C40.5344 30.4014 40.9596 31.133 41.5422 31.7294C41.6176 31.8048 41.5422 31.9127 41.4769 32.0056L41.4417 32.0584L29.9793 49.7929C29.9492 49.8431 29.9215 49.8858 29.8713 49.9185C29.8109 49.9561 29.7255 49.9385 29.6551 49.921C29.2093 49.8043 28.751 49.7419 28.2902 49.7352C27.8779 49.7352 27.4305 49.8105 26.978 49.8933H26.9755C26.9252 49.9009 26.88 49.9109 26.8398 49.8808C26.7954 49.8445 26.7571 49.8013 26.7267 49.7527L14.6409 32.1437ZM28.2097 18.5899L42.8242 3.99143C44.8477 1.97015 45.8607 0.958257 47.0321 0.589153C48.0185 0.277574 49.0772 0.277574 50.0636 0.589153C51.2349 0.958257 52.248 1.97015 54.2715 3.99143L57.4387 7.15518L47.0447 23.235C47.0189 23.2818 46.9839 23.3229 46.9416 23.3556C46.8788 23.3982 46.7908 23.3807 46.7154 23.3556C45.8959 23.1071 45.0281 23.0619 44.1872 23.2238C43.3463 23.3857 42.5575 23.7498 41.8891 24.2846C41.8213 24.3549 41.7207 24.3147 41.6352 24.2771C40.2779 23.687 29.7204 19.2301 28.2097 18.5899ZM59.6457 9.35976L69.2429 18.9464L66.9303 33.2536V33.2912C66.9282 33.3238 66.9215 33.356 66.9102 33.3866C66.8851 33.4369 66.8348 33.4469 66.7845 33.462C66.2901 33.6116 65.8244 33.8433 65.407 34.1474C65.3891 34.1602 65.3723 34.1745 65.3567 34.1901C65.3291 34.2203 65.3014 34.2479 65.2562 34.2529C65.2194 34.254 65.1827 34.2481 65.1481 34.2353L50.5236 28.0284L50.4959 28.0158C50.4029 27.9781 50.2923 27.9329 50.2923 27.8375C50.2064 27.0235 49.9402 26.2387 49.5131 25.54C49.4427 25.4245 49.3648 25.304 49.4251 25.186L59.6457 9.35976ZM49.7619 30.9686L63.4715 36.7688C63.5469 36.804 63.6299 36.8366 63.6625 36.9145C63.6756 36.9613 63.6756 37.0108 63.6625 37.0576C63.6223 37.2585 63.5871 37.4869 63.5871 37.7179V38.1021C63.5871 38.1975 63.4891 38.2377 63.3986 38.2754L63.3709 38.2854C61.1991 39.2119 32.8801 51.2743 32.8374 51.2743C32.7947 51.2743 32.7494 51.2743 32.7067 51.2317C32.6313 51.1563 32.7067 51.0509 32.7745 50.9555C32.7865 50.9389 32.7983 50.9222 32.8097 50.9052L44.076 33.4795L44.0961 33.4494C44.1615 33.3439 44.2369 33.2259 44.3575 33.2259L44.4707 33.2435C44.7271 33.2787 44.9533 33.3113 45.182 33.3113C46.8913 33.3113 48.4749 32.4802 49.4301 31.059C49.4529 31.0211 49.4818 30.9871 49.5156 30.9586C49.5835 30.9084 49.684 30.9335 49.7619 30.9686ZM34.0615 54.0313L64.9294 40.8817C64.9294 40.8817 64.9747 40.8817 65.0174 40.9244C65.1858 41.0926 65.3291 41.2056 65.4673 41.3111L65.5352 41.3537C65.5981 41.3889 65.6609 41.4291 65.6659 41.4944C65.6659 41.5195 65.6659 41.5345 65.6609 41.5571L63.0165 57.7826L63.0065 57.8479C62.9889 57.9734 62.9713 58.1166 62.8531 58.1166C62.1481 58.1641 61.4653 58.3826 60.864 58.7532C60.2626 59.1238 59.7607 59.6353 59.4019 60.2433L59.3893 60.2634C59.3541 60.3211 59.3214 60.3764 59.2636 60.4065C59.2108 60.4316 59.143 60.4216 59.0877 60.409L34.4713 55.337C34.4461 55.332 34.0892 54.0338 34.0615 54.0313Z" fill="url(#paint0_radial)"/>
<defs>
<radialGradient id="paint0_radial" cx="0" cy="0" r="1" gradientUnits="userSpaceOnUse" gradientTransform="translate(-2.86912 47.1352) rotate(90) scale(96.1702 111.154)">
<stop stop-color="#20C6B7"/>
<stop offset="1" stop-color="#4D9ABF"/>
</radialGradient>
</defs>
</svg>
